svg/u1f6f3.svg

<svg viewBox="0 0 128 128" xmlns="http://www.w3.org/2000/svg">
  <path d="M64.42,5.58l-0.95,3.63l-3.39-0.28c-0.18,2.19,0.84,4.07,2.3,4.43l-0.98,3.75l-5.57-0.86 c-0.19,2.35,0.98,4.37,2.62,4.5l1.85,0.56l-1.58,6.01l5.74,1.62l2.39-23.15L64.42,5.58z" fill="#94D1E0"/>
  <path d="M59.59,40.41H28.36c-7.2,0-7.82-4.4-7.53-7.43c0.35-3.68,2.4-5.43,5.47-5.59l30.31-1.37L59.59,40.41z " fill="#DFECF5"/>
  <path d="M56.61,39.83l22.47,3.3v-8.46c0-1.87-1.31-3.51-3.19-3.96l-18.92-4.6c-0.7-0.17-1.44-0.01-2,0.45 c-0.87,0.73-1.97,2.2-2.25,5.07C52.27,36.43,53.45,39.17,56.61,39.83z" fill="#82AEC0"/>
  <path d="M53.45,35.87l-32.3,0.66c0,0-0.35-1.12-0.35-2.93s0.75-3.32,0.75-3.32l31.9-1.35V35.87z" fill="#8EC9D6"/>
  <path d="M52.85,35.88l22.3,3.45c0.64,0.1,1.23-0.39,1.24-1.04l0.05-3.08c0.01-0.5-0.34-0.95-0.83-1.06 l-22.28-5.21C51.81,32.28,52.85,35.88,52.85,35.88z" fill="#2F7889"/>
  <polygon points="116.6,83.34 53.76,79.01 56.61,40.96 111.1,49.15 110.58,62.17 118.09,62.98 " fill="#2F7889"/>
  <path d="M102.69,27.24l8.48,1.23c0.35,0.08,0.59,0.49,0.64,1.1c0,0,0.34,1.28-0.62,1.75 c-0.52,0.26-2.43,0.83-2.43,0.83c-0.71,0.36-1.25,0.77-1.33,2.82l-0.1,12.8L95.48,46.7c0,0,4.46-13.81,5.58-17.66 C101.39,27.9,102.11,27.1,102.69,27.24z" fill="#F44336"/>
  <polygon points="95.92,45.69 96.39,44.24 107.35,44.5 107.35,47.78 " fill="#C62828"/>
  <path d="M111.35,61.44l0.55-13.66l-52.22-7.82l-0.49,4.75l4.98,0.71l-0.49,10.82l-4.78-0.52l-0.03,4.95 l4.59,0.48l-0.5,10.99l-7.19-0.55l-0.32,4.71l62.21,4.79l1.18-18.91L111.35,61.44z M70.55,72.73l-5.51-0.43l0.5-10.93l5.5,0.58 L70.55,72.73z M71.27,57.07l-5.5-0.6l0.49-10.74l5.49,0.82L71.27,57.07z M78.16,73.31l-5.51-0.43l0.49-10.71l5.51,0.58L78.16,73.31z M78.86,57.89l-5.5-0.6l0.48-10.43l5.49,0.82L78.86,57.89z M85.78,73.9l-5.52-0.43l0.48-10.5l5.55,0.59L85.78,73.9z M86.52,58.73 l-5.57-0.61L81.42,48l5.59,0.84L86.52,58.73z M93.39,74.49l-5.51-0.43l0.51-10.28l5.51,0.58L93.39,74.49z M94.13,59.56l-5.51-0.6 l0.48-9.81l5.51,0.83L94.13,59.56z M100.99,75.07l-5.51-0.43l0.5-10.06l5.51,0.58L100.99,75.07z M101.74,60.39l-5.51-0.6l0.47-9.5 l5.51,0.82L101.74,60.39z M108.59,75.66l-5.5-0.42l0.5-9.85l5.45,0.58L108.59,75.66z M109.25,61.21l-5.42-0.59l0.47-9.19l5.37,0.8 L109.25,61.21z M116,76.23l-5.31-0.41l0.44-9.64l5.47,0.58L116,76.23z" fill="#94D1E0"/>
  <polygon points="109.52,54.73 57.44,47.54 59.42,44.71 111.7,52.53 " fill="#82AEC0"/>
  <polygon points="116.43,69.49 56.39,64.2 58.86,60.66 118.46,66.91 " fill="#82AEC0"/>
  <polygon points="59.42,44.71 59.67,39.95 26.97,40.35 26.22,44.33 28.86,46.73 27.01,55.19 24.73,55.19 24.29,60.15 25.59,61.69 22.12,77.65 55.96,78.94 56.5,64.03 58.86,60.66 58.89,55.72 57.44,55.7 57.44,47.54 " fill="#DFECF5"/>
  <path d="M6.15,75.42c0,0,56.97-0.93,111.49,5.66l-0.19,4.93c0,0-8.49-0.68-12.36-0.68s-5.92,9.38-10.47,9.38 S66.9,93.63,61.9,92.28c-5.01-1.34-3.62-9.51-8.14-10.64c-4.52-1.13-47.61-2.71-47.61-2.71V75.42z" fill="#82AEC0"/>
  <path d="M98.96,87.61l-0.33,0.87c-1.04,2.75-3.74,4.51-6.67,4.34l-24.89-1.57c-3.11-0.17-5.78-2.3-6.63-5.3 l-0.55-1.95c-0.79-2.79-3.24-4.78-6.13-5L6.15,75.42c-1.13-0.09-2.06,0.87-1.93,2c0,0,0.81,9.58,2.06,17.33l116.9,3.73 c0.55-7.19,0.82-14.02,0.82-14.02l-18.37-1.1C102.71,83.14,99.99,84.87,98.96,87.61z" fill="#DFECF5"/>
  <path d="M6.15,93.55c0,0,0.95,10.46,4.44,18.97s12.3,10.94,16.67,10.94h83.43c5.08,0,8.8-4.11,10.32-9.39 c0.77-2.66,1.78-10.12,2.27-16.95L6.15,93.55z" fill="#2167A1"/>
  <polygon points="30.3,54.5 52.27,54.7 51.56,46.05 32.22,45.79 " fill="#8EC9D6"/>
  <polygon points="26.5,70.99 53.76,71.48 52.55,62.92 28.81,62.74 " fill="#8EC9D6"/>
  <path d="M84.1,89.14l9.29,0.48c0.88,0.05,1.44-0.94,0.94-1.67l-3.08-4.51c-0.18-0.27-0.48-0.44-0.81-0.46 l-5.1-0.37c-0.52-0.04-0.99,0.3-1.12,0.81l-1.11,4.4C82.95,88.46,83.43,89.1,84.1,89.14z" fill="#2F7889"/>
  <path d="M78.06,82.07l-9.66-0.7c-0.42-0.03-0.82,0.19-1.02,0.57l-2.49,4.69c-0.37,0.69,0.11,1.53,0.89,1.57 l13.37,0.69c0.72,0.04,1.27-0.64,1.09-1.34l-1.23-4.67C78.9,82.43,78.52,82.11,78.06,82.07z" fill="#2F7889"/>
  <circle cx="24.57" cy="85.52" r="3.87" fill="#2F7889"/>
  <ellipse cx="36.9" cy="85.94" rx="3.46" ry="3.62" fill="#2F7889"/>
  <ellipse cx="49.23" cy="86.37" rx="3.04" ry="3.37" fill="#2F7889"/>
  <ellipse cx="105.56" cy="89.66" rx="2.37" ry="2.69" fill="#2F7889"/>
  <ellipse cx="113.18" cy="89.93" rx="2.09" ry="2.52" fill="#2F7889"/>
  <ellipse cx="119.89" cy="90.19" rx="1.8" ry="2.34" fill="#2F7889"/>
  <line fill="none" stroke="#82AEC0" stroke-miterlimit="10" x1="124" x2="100.91" y1="84.46" y2="82.22"/>
</svg>

<svg viewBox="0 0 128 128" xmlns="http://www.w3.org/2000/svg">
  <defs/>
  <path d="M64.42,5.58 L63.47,9.21 L60.08,8.93 C59.9,11.12 60.92,13 62.38,13.36 L61.4,17.11 L55.83,16.25 C55.64,18.6 56.81,20.62 58.45,20.75 L60.3,21.31 L58.72,27.32 L64.46,28.94 L66.85,5.79 L64.42,5.58 Z" fill="#94D1E0"/>
  <path d="M59.59,40.41 L28.36,40.41 C21.16,40.41 20.54,36.01 20.83,32.98 C21.18,29.3 23.23,27.55 26.3,27.39 L56.61,26.02 L59.59,40.41 Z" fill="#DFECF5"/>
  <path d="M56.61,39.83 L79.08,43.13 L79.08,34.67 C79.08,32.8 77.77,31.16 75.89,30.71 L56.97,26.11 C56.27,25.94 55.53,26.1 54.97,26.56 C54.1,27.29 53,28.76 52.72,31.63 C52.27,36.43 53.45,39.17 56.61,39.83 Z" fill="#82AEC0"/>
  <path d="M53.45,35.87 L21.15,36.53 C21.15,36.53 20.8,35.41 20.8,33.6 C20.8,31.79 21.55,30.28 21.55,30.28 L53.45,28.93 L53.45,35.87 Z" fill="#8EC9D6"/>
  <path d="M52.85,35.88 L75.15,39.33 C75.79,39.43 76.38,38.94 76.39,38.29 L76.44,35.21 C76.45,34.71 76.1,34.26 75.61,34.15 L53.33,28.94 C51.81,32.28 52.85,35.88 52.85,35.88 Z" fill="#2F7889"/>
  <path d="M116.6,83.34 L53.76,79.01 L56.61,40.96 L111.1,49.15 L110.58,62.17 L118.09,62.98 Z" fill="#2F7889"/>
  <path d="M102.69,27.24 L111.17,28.47 C111.52,28.55 111.76,28.96 111.81,29.57 C111.81,29.57 112.15,30.85 111.19,31.32 C110.67,31.58 108.76,32.15 108.76,32.15 C108.05,32.51 107.51,32.92 107.43,34.97 L107.33,47.77 L95.48,46.7 C95.48,46.7 99.94,32.89 101.06,29.04 C101.39,27.9 102.11,27.1 102.69,27.24 Z" fill="#F44336"/>
  <path d="M95.92,45.69 L96.39,44.24 L107.35,44.5 L107.35,47.78 Z" fill="#C62828"/>
  <path d="M111.35,61.44 L111.9,47.78 L59.68,39.96 L59.19,44.71 L64.17,45.42 L63.68,56.24 L58.9,55.72 L58.87,60.67 L63.46,61.15 L62.96,72.14 L55.77,71.59 L55.45,76.3 L117.66,81.09 L118.84,62.18 L111.35,61.44 Z M70.55,72.73 L65.04,72.3 L65.54,61.37 L71.04,61.95 L70.55,72.73 Z M71.27,57.07 L65.77,56.47 L66.26,45.73 L71.75,46.55 L71.27,57.07 Z M78.16,73.31 L72.65,72.88 L73.14,62.17 L78.65,62.75 L78.16,73.31 Z M78.86,57.89 L73.36,57.29 L73.84,46.86 L79.33,47.68 L78.86,57.89 Z M85.78,73.9 L80.26,73.47 L80.74,62.97 L86.29,63.56 L85.78,73.9 Z M86.52,58.73 L80.95,58.12 L81.42,48 L87.01,48.84 L86.52,58.73 Z M93.39,74.49 L87.88,74.06 L88.39,63.78 L93.9,64.36 L93.39,74.49 Z M94.13,59.56 L88.62,58.96 L89.1,49.15 L94.61,49.98 L94.13,59.56 Z M100.99,75.07 L95.48,74.64 L95.98,64.58 L101.49,65.16 L100.99,75.07 Z M101.74,60.39 L96.23,59.79 L96.7,50.29 L102.21,51.11 L101.74,60.39 Z M108.59,75.66 L103.09,75.24 L103.59,65.39 L109.04,65.97 L108.59,75.66 Z M109.25,61.21 L103.83,60.62 L104.3,51.43 L109.67,52.23 L109.25,61.21 Z M116,76.23 L110.69,75.82 L111.13,66.18 L116.6,66.76 L116,76.23 Z" fill="#94D1E0"/>
  <path d="M109.52,54.73 L57.44,47.54 L59.42,44.71 L111.7,52.53 Z" fill="#82AEC0"/>
  <path d="M116.43,69.49 L56.39,64.2 L58.86,60.66 L118.46,66.91 Z" fill="#82AEC0"/>
  <path d="M59.42,44.71 L59.67,39.95 L26.97,40.35 L26.22,44.33 L28.86,46.73 L27.01,55.19 L24.73,55.19 L24.29,60.15 L25.59,61.69 L22.12,77.65 L55.96,78.94 L56.5,64.03 L58.86,60.66 L58.89,55.72 L57.44,55.7 L57.44,47.54 Z" fill="#DFECF5"/>
  <path d="M6.15,75.42 C6.15,75.42 63.12,74.49 117.64,81.08 L117.45,86.01 C117.45,86.01 108.96,85.33 105.09,85.33 C101.22,85.33 99.17,94.71 94.62,94.71 C90.07,94.71 66.9,93.63 61.9,92.28 C56.89,90.94 58.28,82.77 53.76,81.64 C49.24,80.51 6.15,78.93 6.15,78.93 L6.15,75.42 Z" fill="#82AEC0"/>
  <path d="M98.96,87.61 L98.63,88.48 C97.59,91.23 94.89,92.99 91.96,92.82 L67.07,91.25 C63.96,91.08 61.29,88.95 60.44,85.95 L59.89,84 C59.1,81.21 56.65,79.22 53.76,79 L6.15,75.42 C5.02,75.33 4.09,76.29 4.22,77.42 C4.22,77.42 5.03,87 6.28,94.75 L123.18,98.48 C123.73,91.29 124,84.46 124,84.46 L105.63,83.36 C102.71,83.14 99.99,84.87 98.96,87.61 Z" fill="#DFECF5"/>
  <path d="M6.15,93.55 C6.15,93.55 7.1,104.01 10.59,112.52 C14.08,121.03 22.89,123.46 27.26,123.46 L110.69,123.46 C115.77,123.46 119.49,119.35 121.01,114.07 C121.78,111.41 122.79,103.95 123.28,97.12 L6.15,93.55 Z" fill="#2167A1"/>
  <path d="M30.3,54.5 L52.27,54.7 L51.56,46.05 L32.22,45.79 Z" fill="#8EC9D6"/>
  <path d="M26.5,70.99 L53.76,71.48 L52.55,62.92 L28.81,62.74 Z" fill="#8EC9D6"/>
  <path d="M84.1,89.14 L93.39,89.62 C94.27,89.67 94.83,88.68 94.33,87.95 L91.25,83.44 C91.07,83.17 90.77,83 90.44,82.98 L85.34,82.61 C84.82,82.57 84.35,82.91 84.22,83.42 L83.11,87.82 C82.95,88.46 83.43,89.1 84.1,89.14 Z" fill="#2F7889"/>
  <path d="M78.06,82.07 L68.4,81.37 C67.98,81.34 67.58,81.56 67.38,81.94 L64.89,86.63 C64.52,87.32 65,88.16 65.78,88.2 L79.15,88.89 C79.87,88.93 80.42,88.25 80.24,87.55 L79.01,82.88 C78.9,82.43 78.52,82.11 78.06,82.07 Z" fill="#2F7889"/>
  <path d="M28.44,85.52 A3.87 3.87 0 1 1 20.7,85.52 A3.87 3.87 0 1 1 28.44,85.52 Z" fill="#2F7889"/>
  <path d="M40.36,85.94 A3.46 3.62 0 1 1 33.44,85.94 A3.46 3.62 0 1 1 40.36,85.94 Z" fill="#2F7889"/>
  <path d="M52.27,86.37 A3.04 3.37 0 1 1 46.19,86.37 A3.04 3.37 0 1 1 52.27,86.37 Z" fill="#2F7889"/>
  <path d="M107.93,89.66 A2.37 2.69 0 1 1 103.19,89.66 A2.37 2.69 0 1 1 107.93,89.66 Z" fill="#2F7889"/>
  <path d="M115.27,89.93 A2.09 2.52 0 1 1 111.09,89.93 A2.09 2.52 0 1 1 115.27,89.93 Z" fill="#2F7889"/>
  <path d="M121.69,90.19 A1.8 2.34 0 1 1 118.09,90.19 A1.8 2.34 0 1 1 121.69,90.19 Z" fill="#2F7889"/>
  <path d="M123.952,84.958 L100.862,82.718 L100.958,81.722 L124.048,83.962 L123.952,84.958 Z" fill="#82AEC0"/>
</svg>
